icons/actions/12/transform-affect-pattern.svg

<svg xmlns="http://www.w3.org/2000/svg" width="12" height="12" id="svg3049">
    <defs id="defs3051">
        <style id="current-color-scheme">
            .ColorScheme-Text{color:#4d4d4d}.ColorScheme-Background{color:#eff0f1}.ColorScheme-Highlight{color:#3daee9}.ColorScheme-ViewText{color:#31363b}.ColorScheme-ViewBackground{color:#fcfcfc}.ColorScheme-ViewHover{color:#93cee9}.ColorScheme-ViewFocus{color:#3daee9}.ColorScheme-ButtonText{color:#31363b}.ColorScheme-ButtonBackground{color:#eff0f1}.ColorScheme-ButtonHover{color:#93cee9}.ColorScheme-ButtonFocus{color:#3daee9}
        </style>
    </defs>
    <g id="layer1">
        <path style="color:#4d4d4d;fill:#1d99f3;fill-opacity:1;stroke:none" d="m 424.80239,542.79074 0.36698,0.37891 1.62109,1.62109 -2.07617,0 0,1 2.07617,0 -1.62109,1.62109 -0.38146,0.37891 1.41661,0 1.79297,-1.79297 0.70703,-0.70703 -2.5,-2.5 z m -2.0881,2 0,1 2,0 0,-1 z" id="rect3354-9-4-9-5" transform="translate(-421.714 -535.79)"/>
        <path style="fill:#4d4d4d;fill-opacity:1;stroke:none;stroke-width:.1;stroke-linecap:square;stroke-miterlimit:4;stroke-dasharray:none;stroke-opacity:1" d="M 1 1 L 3 3 L 5 1 L 1 1 z M 5 1 L 7 3 L 9 1 L 5 1 z M 9 1 L 11 3 L 11 1 L 9 1 z M 11 3 L 9 5 L 11 7 L 11 3 z M 11 7 L 9 9 L 11 9 L 11 7 z M 9 9 L 8.1425781 8.1425781 L 7 7 L 7 9 L 9 9 z M 7 7 L 9 5 L 7 3 L 5 5 L 7 5 L 7 7 z M 5 5 L 3 3 L 1 5 L 5 5 z" id="rect8025"/>
    </g>
</svg>

<svg xmlns="http://www.w3.org/2000/svg" viewBox="0 0 12 12">
  <defs id="defs3051">
    <style type="text/css" id="current-color-scheme">
      .ColorScheme-Text {
        color:#4d4d4d;
      }
      .ColorScheme-Highlight {
        color:#3daee9;
      }
      </style>
  </defs>
 <path 
     style="fill:currentColor;fill-opacity:1;stroke:none" 
     d="m424.8 542.79l.367.379 1.621 1.621h-2.076v1h2.076l-1.621 1.621-.381.379h1.417l2.5-2.5-2.5-2.5zm-2.088 2v1h2v-1z" 
     transform="translate(-421.71-535.79)"
     class="ColorScheme-Highlight"
     />
 <path 
     style="fill:currentColor;fill-opacity:1;stroke:none" 
     d="m1 1l2 2 2-2zm4 0l2 2 2-2zm4 0l2 2v-2zm2 2l-2 2 2 2zm0 4l-2 2h2zm-2 2l-2-2v2zm-2-2l2-2-2-2-2 2h2zm-2-2l-2-2-2 2z"
     class="ColorScheme-Text"
     />
</svg>
